X:7002
%%etbk:tnset id:131,pos:2,rep:3
T:Maloney's
Z: Piano Box Version by Martin Fleischmann (www.boxplayer.ch)
M: 4/4
L: 1/8
R: strathspey
K: Dmaj
|:"D"!2!F!4!AA!1!D FAA!2!F | "G"!3!G2GA !5!(3B!3!G!1!E !1!E!1!D | "D"!2!F!4!AA!1!D !2!F!3!A!5!d!3!A | "A"!4!BA!4!B!5!d "D"!3!(3A!2!F!1!D D2 :|
| "A"!5!e!1!A!1!A!1!A !5!e2!1!A!2!F | "G"!1!G3A !3!B!5!ee2 | "A"!5!e2!1!AA !5!e2!4!d!1!A | "D"!2!BAB!4!d !1!(3A!2!F!1!D D2 |
"D"!5!fedf !4!e!3!d!2!B!1!A |"G" !1!G3A !3!B!5!e!2!e2 | "D"!5!a3f !2!e2!1!AA | "A"!2!BAB!4!d "D"!1!(3A!2!F!1!D D2 |

